/* XPM */
static char *result[] = {
/* columns rows colors chars-per-pixel */
"64 64 228 2 ",
"   c #000101",
".  c #010902",
"X  c #050909",
"o  c #090C0D",
"O  c #3F211F",
"+  c #7D2200",
"@  c #533A2C",
"#  c #1C4100",
"$  c #274B00",
"%  c #2D5400",
"&  c #2D5900",
"*  c #315603",
"=  c #345B00",
"-  c #395E00",
";  c #3A5912",
":  c #356300",
">  c #3C6400",
",  c #3D6B01",
"<  c #3F453E",
"1  c #426501",
"2  c #436B00",
"3  c #496D00",
"4  c #466E0E",
"5  c #457201",
"6  c #447604",
"7  c #4B7300",
"8  c #4C7A00",
"9  c #517502",
"0  c #537B00",
"q  c #597E01",
"w  c #577809",
"e  c #4D6C17",
"r  c #567814",
"t  c #4F5E2F",
"y  c #4B5733",
"u  c #55672B",
"i  c #5C6D2B",
"p  c #566234",
"a  c #586336",
"s  c #61722D",
"d  c #606F31",
"f  c #657833",
"g  c #434145",
"h  c #46404C",
"j  c #535355",
"k  c #666646",
"l  c #686866",
"z  c #767875",
"x  c #A10802",
"c  c #832700",
"v  c #963B39",
"b  c #AA3C31",
"n  c #ED321F",
"m  c #F72D20",
"M  c #ED3223",
"N  c #F03123",
"B  c #F93C30",
"V  c #DA4F17",
"C  c #DA5510",
"Z  c #D96217",
"A  c #EA6B19",
"S  c #EB6D22",
"D  c #ED7627",
"F  c #E67728",
"G  c #EC762C",
"H  c #EB782E",
"J  c #F1752C",
"K  c #F87B2A",
"L  c #ED7632",
"P  c #F67730",
"I  c #FF695D",
"U  c #558200",
"Y  c #5C8401",
"T  c #5D8901",
"R  c #5C830B",
"E  c #558B09",
"W  c #59880C",
"Q  c #618502",
"!  c #648C02",
"~  c #6A8D02",
"^  c #62850B",
"/  c #648C0B",
"(  c #698D0A",
")  c #659202",
"_  c #6B9402",
"`  c #679806",
"'  c #6D9A03",
"]  c #66920B",
"[  c #6B940B",
"{  c #6E9A0B",
"}  c #729502",
"|  c #789700",
" . c #739C03",
".. c #799D02",
"X. c #72950B",
"o. c #739C0B",
"O. c #799E0C",
"+. c #678616",
"@. c #658C13",
"#. c #648B1B",
"$. c #6B8C1B",
"%. c #718B1C",
"&. c #669112",
"*. c #6B9412",
"=. c #6E9913",
"-. c #66941E",
";. c #6D941B",
":. c #6D9919",
">. c #729613",
",. c #739C13",
"<. c #739C1B",
"1. c #799E19",
"2. c #75A103",
"3. c #7BA403",
"4. c #7DA903",
"5. c #75A10B",
"6. c #7BA40C",
"7. c #7EAA0C",
"8. c #76A113",
"9. c #7BA413",
"0. c #7EAA14",
"q. c #76A21B",
"w. c #7BA41B",
"e. c #7DA91B",
"r. c #6C8622",
"t. c #738D20",
"y. c #6C9222",
"u. c #6C922D",
"i. c #759927",
"p. c #729035",
"a. c #7CA324",
"s. c #79A527",
"d. c #819F06",
"f. c #82A503",
"g. c #83AC03",
"h. c #89AE03",
"j. c #81A60B",
"k. c #83AC0C",
"l. c #89AE0C",
"z. c #86B103",
"x. c #8AB303",
"c. c #85B902",
"v. c #8EB901",
"b. c #85B20B",
"n. c #8BB30B",
"m. c #8EBA0C",
"M. c #91B502",
"N. c #91BA04",
"B. c #91B50D",
"V. c #92BC0C",
"C. c #98BB08",
"Z. c #81A612",
"A. c #83AC12",
"S. c #83AC1C",
"D. c #88AB18",
"F. c #85B213",
"G. c #8BB313",
"H. c #8DB914",
"J. c #85B21B",
"K. c #8BB31C",
"L. c #8DB91C",
"P. c #93BB14",
"I. c #93B816",
"U. c #92BC1B",
"Y. c #839E2E",
"T. c #83AB24",
"R. c #86AA27",
"E. c #86B222",
"W. c #8AB223",
"Q. c #8BB727",
"!. c #94BD22",
"~. c #94BC2C",
"^. c #98BA28",
"/. c #89AA36",
"(. c #8CB232",
"). c #94B937",
"_. c #99C306",
"`. c #8FC113",
"'. c #94C115",
"]. c #9CC917",
"[. c #96C11D",
"{. c #9AC31C",
"}. c #AAD00E",
"|. c #A5C91B",
" X c #A9D31A",
".X c #9CC424",
"XX c #9CCB25",
"oX c #96C329",
"OX c #97C531",
"+X c #A3CB26",
"@X c #ABD323",
"#X c #A8D52A",
"$X c #ADD92C",
"%X c #B3DC29",
"&X c #A2C838",
"*X c #ABD433",
"=X c #A8D539",
"-X c #B6DD37",
";X c #B8E624",
":X c #B5E22A",
">X c #B8E536",
",X c #C6ED31",
"<X c #8CAD45",
"1X c #97BA48",
"2X c #C29475",
"3X c #9EC544",
"4X c #A7D245",
"5X c #A9D34B",
"6X c #B2DC44",
"7X c #BAE746",
"8X c #BAE654",
"9X c #BDE466",
"0X c #C4ED49",
"qX c #CC9B8D",
"wX c #CF9891",
"eX c #FFDEB6",
"rX c #FFE3BE",
"tX c #D2D2D2",
"yX c #DAEFD3",
"uX c #DCEFD9",
"iX c #DBF0D4",
"pX c #FFE8C4",
"aX c #EAEAE9",
"sX c #F2F4EF",
"dX c #EEF4F7",
"fX c #F6F5F6",
"gX c #FDFCF7",
"hX c #FEFEFD",
/* pixels */
"R O.=.) 9Xw.! [ L.T ,.0 q.i.] Y ( / ` i._ { ` 4.- / 0.) 8.O.' ) ! o.5.0 *.( 6.e./ _ S.) _ *.=.&.8 L.] ^ 0 r y.*.) ' [ ) ^ / T T ",
"= &.W <X#.#.5 [ &.0 / ! @.o.! _ 7 W.8.<.! ' 8._ >.R  .' '  .' ' o._ /.).{ {.&.7.7.R { T.OX{ <.! >.!.[ &.:.U E.' ` &.-.*.$ ^ - $ ",
"^ / ).i.W [ > @.) Q a.T 2.) ` >._ { { ' <._ ( 5.2 & ' ) 4.{  . .7X' (.2.6.{ ' T 0 >.o. .] 2.6. .! ! o.=X7 ] 8.] ' Y [ ] ;.,.*._ ",
"/ 4 2.! *.0 3 [ =.&./ ,.o.*.0 :.[ ,._ '  .o...o.' o.) } : .X7 V.k.R 3.>.0 4Xo...! 4.8 e.} _ U W.! *.' [ ` ' ' { = / T 4 / ! &.*.",
"u.^ R.E U <.@./ [ *.~ =.5 <._ ' o.0 o.6.'  .2 5.2.4.{ 2.5.6.U.).).8 2 2.,.w.3.i.+X, 2.k.* 2.> o.{ _ > q T w ;.=.|.*.T @.T #.R u.",
"R [ 5 / / ) } @X[ =X( o.U 8.) { _ o.' ,.T ' o.' .. .9.@X..U 5.>X .5.1.7X: T T 5.' o.) 2.:XY ' 2... .>.{ >X) U *.@.*.w.[ 1 :.W K.",
"2 [ / [ 5 W > = _ [ ,.[ {  .5.-.o.0 T o.,  .3.Q 9  .3.' : A.' 4.3.o.s.4.F.Y 2 X.! !._ ' -X' O._ 8 ' % ) , 7 ;.4.U o.U w = Y / ` ",
"! 5X) / >X] [ u.o.! { 8 ,.U ' 5.9. X5.` 7.0.o.6.S.3.Y 2.7.9.6.A.3 ! F.3.' 4.I.) o.9...U 8 ' 5.[ ~.>.>.7 T =.[ 5 ] ` I.{ Y [ / U ",
"/ _ { :./ (.*.2 0 C.L.<.)  .5.<.' ,.! 5.T T ! 7.6.j.3 0 H.8.6.6.k.~ j.j.Y K.0.5.0  .~ S.w 3.o.1.V.2 8 { Y  .:.) -X[ #.i.) ' &.4X",
"T =X8.) U , _ *.A.<.8 oX .o.*.2.o.o.0X@.6.! {.3.K...! b.Z.J.| , B._ !.j.4.L.9.|.2.S.+X6.( 3.' 2.2.3.' o.{ O.X.*XE.<.!.R ] > J.[ ",
"[ 1 _ @.` 1 _ o.' 5.A.0 o.f.O.2 5  .3...K.4.X.T 2.f.Y g.3.7 j.<. . .T k.3.7.f._ G.b.D.8 o.7 6.3.2.7.5.[ *.>XR 6.] ` w *.o.4 / / ",
"7 y.2 Y 8.s.q.[ 8 _ { K.2.<.6.O.5.' *.T 1 8.Q 9.4.O.! D.3.Z.4.4.' ..0X7.h.k.4.-X_ l.9.4.2...+Xb.H.9.8.5._ _.E ! c.) > ' i.{ *.) ",
"] _ 0 { ( { >.0.{ :X4 _ o.s. .4.Z.2.Z.b.g.^ f...P.B.g.l.[.Y n.4.].A.3.D.3.j.l.[ k.4.T 5.S.2 [ j.2.k.W.{ #X8.1X2.` _ _ Y o.& ,.1 ",
"[ ) T.6.8.{ : / T 5.8.U F.3.3. .2.Q 9 ..5.0 x.j.! g.m.P...{.b.G.x.f.Q k.4.R.g._.Q g.l.g.h.5.7 _ _ Y 9 a.X.D.3.% 0 Y % 5 [ U ! > ",
"*X#X] ^ ' h. .{ { { [.S.8.f.7.6.@.Y 6. .* _ 1 -Xl.l.Y l.h.[.4.4.x.0 O.I...j.g.F.k.4.l.l.z.7..X4.l.9 6.r  .[ 2.s.o.7  .{ [ :.] _ ",
"{ ' _ [ W ..,.S.~.`  . ._ a. .J.j.Q ^.3X! Y q 2 A.g.g.! % n.m.! 4.l.>.A._ h.N.B.7.g.W.6.b.4.7. .3.g.).O.o.<._ 5.o. .*.5.) [ Q.) ",
": 3 0 _ e.2.' b.=  .4.' 2._ r T o.u.&X                    ( h.v.z.3.2 z.l.g.k.k.7. X: 6.{.% 3.3 Q @XO.2.o.7 ].O., E.2.! 5.' 1 ! ",
"` W.,._ S.) ,.5. .l.8.g.g.U {.f.^.1.3.                    x.I.x.3.l.U.x...9 h.h.g.g.z.n.g.g.XX/.>.4.1.j.A.k.~ !.b.T 5.o.{ =.{ :.",
"[ T 5.[ q ` ' 4.5...R.9.A.l.7.! I.e.Y o o o o o o o o o o G.].z.@XN.U |.n.! ! g.m.A.3 0 G.E.n.1X7 3 ~ } A.6.#XT 7 K.Y e.,.1 [ [ ",
"! *Xi.6.5.& 9.8.2.2.9.n.P.j.n.F.      G L G H L G G G G D       x.x.x.C.N.^ M.g.XXl.g. .x.x.! z.k.4.G.x.8.3.| 2 _ ' 8.!.7 3.{ 0 ",
"R D.! Q._  . .O.3 3.* ~ Z.A.g g S S S G H G G G G J fXdXdXaXaXS h h g g Y 2 0 |.z.F. Xq 6 !  .{.k.:X0 j.2.3.R.,.9.T O. .=.' i.3.",
"{.[ g. .2... .3.K.].q 6.j.9.    G G G G G H G G G G gXgXgXgXhXG         T N.V.~ x.M. XG.k.N.h.k.J.> Y 7. .o.>.2. .q.^ ~. .' &.<.",
"6.,.5._ 0.5.= 3.O.3.6.6.    gXgXgXgXgXG G G H G G G H pXgXH G G G G G G     `.m.B.x.C.3 > ( n.d.g.g.g.x.1.g.' 3.7 2.6.{ O.=  .o.",
"{ 6X_  . . .7.6.3.G.#XU     gXgXgXgXgXG G G G G G G G rXgXH D D D D D J     m.T x.*XB.l._.g.v.A._ f.j.A.3.8 2.5.a.3.3 a.> #._ : ",
"T  .{ 5.6. .2.5.a.:X6.P.    gXgXgXG L G G H gXgXhXgXgX2XG G G gXhXhXhXhXgXfX  N.P.M.1 Y n.n.k.{.n. .} k.3.> .X,.! 6.Y 0 ) [ _ A.",
"o.) 3 q { D.2./.S.6.U.F.    gXgXgXG G G G G gXgXgXgXgX2XH H G gXgXgXgXgXgXgX  0 B.M.h.m.| z.4.z.z.Z.k.9.l.D.f.7. .6.! o.0.3.{ 0 ",
"Y ! o.! ! / > z.@X+X2 !     gXgXG G G G fXgXgXgXG G G pXgXgXhXG gXgXgXgXG H G     2. .L.J.2.n.v.3.x._ S.3.T j...6.9. .) ~.5.T j.",
"' 5.o.7.(.).2.Y 0 Z._ _     gXgXG G G G gXgXgXgXG G G pXgXgXfXG gXgXgXgXD H G     N.N.N.2.x.x.H.' h.x.k.q 3.7.z.2.7.:XR.$  .5.5.",
"% U ! ).i.3 0 2.! h.j..X3.4.l l + V V V sXgXwXqXG L eXpXgXgXgXeXqXqXqXqXG L eX    _.x.G.}.G.x.Y @.5.Y Q ! A.g.!.6.5 T.' >XT [ ^ ",
"5.R ).i.7 { V.6.o.U _ !.b.h.      n M M sXgXG G G J gXgXgXgXgXgXL L G H H L hX    n.U _.G.! g.~ h.A.|.K.6.9.Y k.9.% 2.0 ` o.[ Y ",
"' _ Y 2.8 _ 2.Z.S.5.E.) 4.x.    hX          G G G J gXgXgXgXgXG D G H H gXgXgXgXgXl x.M.;X'.}.h.! oXg.g.;.l.X.4.) 2.0._ w.2  .^ ",
"^ o.U z.2.Y 5.3.,.....8 : _     hX          J D G K gXgXgXgXgXG G G D F gXgXgXgXgXl m.P.B.v.N.x.#Xx.D.h.2.g.3.j.0 j.8.3. . .{ 1X",
"' [ 0.7.>.o.K. . .7 3.9.1 b.    hXhXhXhXhXhX    N B gXgXgXgXgXG G G aXgXgXgXgXJ J c G.N.C._.V.x.G.h.].9  X} 5 6... .k.8.; 7.5._ ",
" .T  .0...S.3.9.f.} k.l.b.h.    hXhXhXhXhXhX    M B gXgXgXgXgXG G D aXgXgXgXgXL D c  Xz.P.q n.H.x.-Xk.U g.h.j.3.>Xa.' _ T ' > { ",
"3 ~ ' $X6.a.2.2.2...H.g.2 P.$Xl.  hXhXhXhXhXhXhX          N n M G G aXgXgXgXG G G H .       B.,Xm..Xn.h.' V.n.k.2.O._ 1.0 ` [ =.",
"8.1.{.T 6.' K.g.b.3.K. .H.z.U '.  hXhXhXhXhXhXhX          N M n G J aXhXgXgXG G G G         O.U.g.G.f.6.A.g.2.o.4.5..X' 2.'  .oX",
",.[ 2./ 7.+XS.k.o.j.j.[.3.x.3.g.W.z z hXhXhXhXhXtXtXtXtXtX@ O O @ @ I I I I G G G G Z Z Z A l l l 6.h.) A.7.g.o.2.9.=.0.6.XX[ ;.",
"' o.^ 0 Y o.> 5.| 6.! T.j.n. .g.j.    hXhXhXhXhXhXhXhXhXhX          N M M M J G G G H D P K       b.X.D.A.0 a.G.7._ !.0.0._ ,X^ ",
",._ 0 ..6. .3 W._  ._ l.G.[ g.h.j.K._ o o o hXhXhXhXhXhXhXhXhXhXhXhXj     X X G D G       G G D N X X h.4.X.0 6.l.) 8.6._ { &.<.",
"[ 7 0 *X .3.6.5.! 3XA.2.3.} A.q 3.4.$X      hXhXhXhXhXhXhXhXhXhXhXhXj         L L L       G D G N .   ~ $X.X+.k.5 8 6. .7 , (.<.",
"^ ^ 7 : _ 5.3.9.k.6.U.k.k.x.`.].Q U.9 ..G.-X          aXhXhXhXhXhXhXhXhX    uX    b H D H   M N M M M     9.5.0.6.> 9.$Xo.' / 9.",
"=. .Y { 5.,.5...5.2.4.( k.k.' 4.q G.} G.^.h.          aXhXhXhXhXhXhXhXhX    iX    b H H H   M M M M M     3.A.6.o.7.5., { ^ _ 2.",
"[ T W _ ' 8.5.2.9.2.6./ !.g. Xz.k.! &X1.k._.l.N.O.T n.<                 yXyXyX    b M M M P     M M M     2.D.4.2... .2 &.' Y _ ",
"*.T =.,.{ { .X5.j.f.7 ) 6.k.U 7.k.&XOX%X! 8 n.n.x.~ V.<                 yXyXyX    b M M M K     M M M     k.9.2.A.o. .*X_ o.s.3 ",
"K., _ W.>  .`  .o.! S.+X4.2.g.Y R.s.g.v.Q G.g.].P.C.|.h.B.h.h._ H.,XM._._ Q V.b.T k N M M C v v x x x     5.7._ 5 oXU.o. .o.A.( ",
"{ _ 8. .[ 5.Y ' T 6.,.1.! Q Q 3.S.4.N.' h.x.x.b.x.v.h.h.2.h.B.P.v., g.] V.h.v.j.Z.k m M M M M M           0._ 4.3.3.6X6.,.) q.4X",
"<.[ [ { q.,.'.3.D.S.3. .O...q ! k._ ` l._ n.@XD.z.M.| x.z.k.P.n.d.P.3.|.x.v.k.k.Z.h.  X X M M M   % '....X7.3.R / 3.=.W 1 ] _ 8 ",
"] Q.o.o.' ,.` 3.o.>X~ j.Z...7Xg._ Y {.G.F._ 2 G.h.n.b.h.K.! B.x.l.h.|.g.x.C.P.-XD.} .     M M M   6.4.0.a.> 0.O.8 0 ,.e.&X' o.` ",
"1 ~ _ o.s.2 = 5.! _ O.T.4.6.Y _ T O.4.k.*.g.| h.j.B.g._ @Xh.n. ..XC.h.B.h.M.l.l.,Xb.g.K.n.        q 2 6.! 9.9.=XK.3.} a.{ 6.{ 5X",
"/ ` ;.&.o.' 0 ' 7 o.e.{ 0 ,.6.A.7 *...6.2 8 ~ M.A.3.h.g.K.-X+Xg.f.Q >X~ g.^.9 0 ].+.r .X3.        4.~ Z.S.Y 8.2 _ [ f.0 ! [ A.9.",
"/ T ` _ _ ( > w.! 5.B.o.k.} b.3.k.n.r.%.r r r.p.u e %.Y.t.r $.f r.t.<X/.%.%.%.+.e p {.h.B.K.~ b.,.2.A.6.> o.r { 0 W.=._ >.&.{ { ",
"9.<.0 ,.L.5 ' { T 2.,.E 6._ T.0 Z.$.a y p p p a a p y y a i s u d d f f s f s p y p  .3.R.! ..9.l.o.9.2.*.c.*.{ Q ` [ ,.{ 8X) / ",
"7 [ { W.! X.,./.7.OX> ~.! 5.5.-Xg.&Xf f f d i s f d i s p s u f u i s s t u f d s r.A.D.' 3.k.4.7  .2.Q.] w ^ ' ,.q.Q.U W 7 T.q ",
"T &./ [ 8.+.@.@.U e. Xo.oX2  .5.q  .q 6.f.6.7 9.j.K.O.2.4.G.b._ 4.k.T 3.D.W.^ 9. Xx.i., 0 ,.)  .6...#Xo.~.I.T { [ U ! 0 5.;.) [ ",
"! -./ ` s.).:.[ ].8. .L.(.' O.e.5.G.} Y 3.f.4.3.! l.m.3.A.8 3.8 ^...*X! S.j.6.*X5 6.z.4.2. .9.$X .5.6.i.` Y 0 X._ i.` { ` 0 &XT ",
"8.0 ] <Xp.!.* >.' 2...[ :.O.[ 7X7 5.Q <. .!.6.7.0.' K.2.6.k.6.7.} G.O.W.;X_ j.5...S._ 2.3.U.OX' ~ w.=.3.{ 3 .X) F.L.a.) >.W ~.] ",
"q T p.! ] ].) 0 Q.[ >.8 5.) 7 6X] 5.3. .oX.X,.6.A.8  .3.3.4.U.6.3.5.S.g.w._ o. .9 6.2.0 0 =.} / O.,.' O.|.[ T &X` O.#.).` &.T ^ ",
") y.[ &.{ #.T { 8 ` 8.] ` 0._ 8 5.8. . .' 5.# !.8.0 H.7.9.V.9.>.i.(.2.%XT 2.9. .2.7.2.I.o.2 =X' F.o.' 2.{ ] Y o.` _ 9./ ' :.@.#X",
"r _ ] 0 -.:.a.) / T 8.E.{ ! 3._ 2.{ 2.& { ~  .2.o.2. ._ T k.e.y.S.o._  .'.9.6.>._ 8.5. .e.5.E.k.` _ *.o.X.^ 5 , %X[ U ) T ! ;.*.",
": / ,.*.] / ] >X] L.U ' - 5.{ 2 8.b.r _ I.5 F.K.T 6.T o.k.' ' U O.Q A...Z.' 9.~ 0 ~ '.' 1.U ) ) -.[ { >Xo.! ] q Y [ =.3 =X#.$.T ",
":.Y ! W J.] ,.[ ) *.] 9.' U / } =X7.{ ' ! 8.O. .q X.0 ,.6.8.3.:.3. .' ! o.9.Y 5 2.X.2...' % _ [ ' _ [ *._ ! ! ;.5.&.#.-.1XE ! / ",
"] ! 4X, T ! 2 *.&.0 ! 7.2 o.;._ T >.8 { 8.j.! ' 2 ' '  .o.o.9.' 5.'  .} O. .5.0.{ [ ,.2._ w / [ ) Y ` 0 [ ! U y.W 0.) r.! y.@./ ",
"9./ 2 [ ! &.) ! W 5.*.=.` *.:.( [  .'  .'.' o.o.8.8.7.6.` 6.0.2.,.{ &.3.' { 2 ' o.) &./ F.' :._ !.{ ! &.{ ;.,.$.2 5 <Xi.@.[ ! 8 ",
"[ _ =./ Y ;.9.R &.R _ @.=./ W.5.+.) 8 `  .' T { > [ o._ [ ,.[ w ] 5.+.} , _ o.Q = @.q.:.XXo.` a./ W./ 0 ) ! > 6X1 / 3 0 &.T 9 &."
};
