/* XPM */
static char *result[] = {
/* columns rows colors chars-per-pixel */
"64 64 243 2 ",
"   c #0C110E",
".  c #131313",
"X  c #171815",
"o  c #1C1C1C",
"O  c #3F0300",
"+  c #291C19",
"@  c #311A12",
"#  c #1D221D",
"$  c #22221E",
"%  c #191E22",
"&  c #241E23",
"*  c #1E2323",
"=  c #1C2226",
"-  c #232323",
";  c #282625",
":  c #232329",
">  c #2B2B2B",
",  c #34332E",
"<  c #2A3634",
"1  c #343534",
"2  c #363539",
"3  c #383639",
"4  c #343E3C",
"5  c #3D3D3D",
"6  c #500C03",
"7  c #790A00",
"8  c #512A19",
"9  c #48372C",
"0  c #473731",
"q  c #4D3635",
"w  c #4A3838",
"e  c #68342A",
"r  c #7A3426",
"t  c #793826",
"y  c #1C4100",
"u  c #274B00",
"i  c #2C5700",
"p  c #315700",
"a  c #345B00",
"s  c #3A5D00",
"d  c #385416",
"f  c #356200",
"g  c #3C6400",
"h  c #3D6B01",
"j  c #3F7F00",
"k  c #2F403E",
"l  c #416501",
"z  c #436B00",
"x  c #486E04",
"c  c #467201",
"v  c #4B7300",
"b  c #457800",
"n  c #4D7A00",
"m  c #517502",
"M  c #537B00",
"N  c #5A7E01",
"B  c #577809",
"V  c #4B6717",
"C  c #597A16",
"Z  c #617C08",
"A  c #617D1C",
"S  c #44473F",
"D  c #4C5736",
"F  c #4E563C",
"G  c #525D36",
"H  c #50573C",
"J  c #525C3B",
"K  c #586A2B",
"L  c #566337",
"P  c #707327",
"I  c #323E42",
"U  c #294041",
"Y  c #474745",
"T  c #4A4D43",
"R  c #51524C",
"E  c gray39",
"W  c #881F05",
"Q  c #991D06",
"!  c #A51E02",
"~  c #AB1D02",
"^  c #B61D00",
"/  c #BC1C00",
"(  c #9D2204",
")  c #9D2804",
"_  c #9C2309",
"`  c #A52104",
"'  c #AB2704",
"]  c #AD2404",
"[  c #B32303",
"{  c #B52606",
"}  c #BC2200",
"|  c #AF2011",
" . c #963924",
".. c #C71F02",
"X. c #C42401",
"o. c #C92501",
"O. c #C82903",
"+. c #D32400",
"@. c #DC2601",
"#. c #D72B01",
"$. c #DB2B01",
"%. c #DE280A",
"&. c #D63209",
"*. c #CE3711",
"=. c #E72A03",
"-. c #E32C01",
";. c #F32902",
":. c #AD4124",
">. c #84672A",
",. c #8F786C",
"<. c #558201",
"1. c #5C8401",
"2. c #5D8901",
"3. c #5A850C",
"4. c #55890A",
"5. c #618401",
"6. c #638C02",
"7. c #698D02",
"8. c #62850A",
"9. c #648C0B",
"0. c #698D0A",
"q. c #659202",
"w. c #6B9402",
"e. c #679806",
"r. c #6D9A03",
"t. c #66920B",
"y. c #6B940B",
"u. c #6E9A0B",
"i. c #729601",
"p. c #739C03",
"a. c #7A9E02",
"s. c #72940A",
"d. c #739C0B",
"f. c #799E0B",
"g. c #658C13",
"h. c #668819",
"j. c #648B1B",
"k. c #669217",
"l. c #6B9412",
"z. c #6E9913",
"x. c #6C941B",
"c. c #6D991A",
"v. c #729613",
"b. c #739C13",
"n. c #739C1C",
"m. c #799E18",
"M. c #6DA00C",
"N. c #75A102",
"B. c #7BA403",
"V. c #7DA903",
"C. c #75A10C",
"Z. c #7BA40C",
"A. c #7EA90C",
"S. c #76A113",
"D. c #7CA513",
"F. c #7EAA14",
"G. c #76A21B",
"H. c #7BA41A",
"J. c #7DA91A",
"K. c #5E8029",
"L. c #6F8D2D",
"P. c #6C9223",
"I. c #769B27",
"U. c #7CA324",
"Y. c #79A527",
"T. c #82A603",
"R. c #83AC03",
"E. c #89AD03",
"W. c #81A60B",
"Q. c #83AC0C",
"!. c #89AE0C",
"~. c #86B102",
"^. c #8BB303",
"/. c #86B902",
"(. c #8EBA02",
"). c #85B10B",
"_. c #8CB30B",
"`. c #8EB90B",
"'. c #91B603",
"]. c #94BB03",
"[. c #99BE02",
"{. c #92B70D",
"}. c #94BB0B",
"|. c #99BC0B",
" X c #82A612",
".X c #83AC12",
"XX c #87AA17",
"oX c #82AC1C",
"OX c #86B113",
"+X c #8BB314",
"@X c #8AB617",
"#X c #8BB41B",
"$X c #8DB91B",
"%X c #95B917",
"&X c #93BC14",
"*X c #92BD1B",
"=X c #A28D3C",
"-X c #AA8E3E",
";X c #A9903F",
":X c #85AC26",
">X c #89B425",
",X c #94BD22",
"<X c #95BB2A",
"1X c #86A935",
"2X c #8DB232",
"3X c #94B837",
"4X c #9BC303",
"5X c #9CC30B",
"6X c #98C409",
"7X c #8FC414",
"8X c #9CC412",
"9X c #99C419",
"0X c #A4C908",
"qX c #AFD60D",
"wX c #A5C919",
"eX c #AAD318",
"rX c #B3DA17",
"tX c #BBE618",
"yX c #9BC424",
"uX c #99C628",
"iX c #9CC734",
"pX c #A2CB25",
"aX c #AAD528",
"sX c #B3DB28",
"dX c #A5CC39",
"fX c #A9D437",
"gX c #B5DD36",
"hX c #B7E227",
"jX c #B8E537",
"kX c #C2E71E",
"lX c #C6EB2B",
"zX c #C2E638",
"xX c #AB8C40",
"cX c #A89254",
"vX c #89AC46",
"bX c #96B948",
"nX c #A8D347",
"mX c #B2DC44",
"MX c #ADD554",
"NX c #BBE645",
"BX c #BAE654",
"VX c #C7F240",
"CX c #857B83",
/* pixels */
"3.d.l.q.BX:X2.y.$X2.b.M H.n.t.2.9.7.t.c.w.d.w.A.s 5.F.q.C.d.C.7.6.u.C.<.l.0.S. X6.q.:Xw.q.z.z.l.n *X9.g.M C P.t.q.r.l.q.3.9.2.3.",
"a l.8.vXj.j.x t.g.M 8.6.g.z.5.w.v >XS.I.8.r.S.w.b.3.p.r.r.p.r.r.d.q.1X3Xd.9Xg.A.Z.3.u.:XiXr.n.6.v.>Xy.9.c.M >Xr.e.l.x.k.u 6.g u ",
"g.6.3XI.3.y.g 9.q.5.U.2.p.q.u.b.w.d.y.r.b.r.0.C.z i N.6.V.u.p.p.NXp.2XN.A.y.u.2.M b.u.p.9.N.S.p.6.7.d.dXv y.S.t.e.1.u.q.x.b.y.q.",
"3.V N.q.l.M v y.c.y.t.b.C.c.m z.u.v.r.r.p.d.N.d.r.d.7.r.f yXv }.).3.N.v.N nXf.p.q.V.m J.i.w.<.$Xq.v.r.y.e.w.r.r.s 2.2.V 8.8.l.z.",
"I.1.:X4.M n.g.8.y.z.q.z.c z.w.r.u.M d.B.u.p.l S.N.B.u.N.N.Z.*X3X3XM h N.b.J.N.H.pXz N.).p N.g u.y.r.g M 2.B c.z.wXl.2.g.2.P.1.L.",
"B l.c 9.9.q.w.aXy.dXy.b.<.S.q.u.r.d.r.b.2.p.p.r.N.p.D.aXp.<.C.jXd.C.m.NXf <.2.b.r.d.q.p.hX2.r.N.N.r.v.r.jXq.4.z.h.c.S.t.l l.4.>X",
"c l.9.u.b . - - - - # $ - ; ; P.u.n 2.d.h p.N.2.B p.B.w.f .Xu.V.N.d.Y.V.OX<.l s.7.*Xw.r.mXr.d.r.v r.i X X $ - - + * $ # ; 2.t.e.",
"6.nXq.9.jX. # 1 1 1 1 1 1 $ * * & - - * + * - o oXB.2.N.Q.D.Z..Xv 7.OXB.p.V.&Xw.d.S.S $ - $ - $ ; - - & - ; 1 1 1 1 1 > - 6.t.<.",
"9.w.d.z.9.X & &.&.&.#.8 1 2 2 2 1 1 2 3 2 2 - -   . . . . . . . . . . . . . . . . . # * 3 1 1 2 2 2 2 1 3 1 , &.&.*.*.$ - r.l.nX",
"2.fXS.6.N Y R $.-.$.-.e 9 q q q q q q q w 1 > ; - ; ; ; - ; ; ; ; : - ; ; ; ; - - ; - - 1 q w w w w w q q q S -.=.-.-.> R g #Xy.",
"l.l d.9.w.h r.-.-.%.-.-.-.-.=.-.-.-.-.-.=.2 2 2 3 3 5 3 2 3 5 3 3 3 2 2 3 3 3 5 3 2 2 2 3 *.-.-.-.-.-.=.-.-.-.$.-.=.@.E b.x 9.3.",
"v P.l <.S.Y.G.- 8 ! ` &.%.=.=.=.=.=.=.=.=.-.-.-.=.=.=.-.-.-.-.-.=.-.-.-.-.-.-.-.-.-.-.-.=.-.=.-.-.-.-.-.-.-.$.! ! ! & y.I.y.l.q.",
"t.r.N u.7.y.v.F.,.6 ! [ ^ ^ ^ ^ ^ ^ / / -.$.-.-.$.-.-.$.-.-.-.$.-.-.-.-.$.-.$.-.-.-.-.-.-.-.$.$./ / ..^ ^ / ^ ~ 7 6 r.<.u.i d.h ",
"t.q.J.Z.S.d.f 9.CX. ~ ` ! ! ! ! ! ` ! ` -.-.-.-.-.-.-.-.-.-.-.-.-.-.-.-.-.-.-.-.-.-.-.-.-.-.-.-.` ! ! ! ! ! ~ ] O   i v w.3.7.h ",
"fXaXg.8.u.R.p.y.p.v.* # % $.#.#.$.$.~ ' ` ` ` ` ` ` ' ` ` ` ! ! ` ` ` ` ` ' ` ` ` ` ` ` ` ` ` ` O.$.#.@.$.X.= # y.c u.u.u.l.9.q.",
"u.r.w.y.3.p.S.#X<Xw.u.  = #.@.#.$.$.#.$.$.$.%.$.-.-.$.-.-.%.-.-.-.-.-.$.-.-.$.-.-.-.$.$.$.$.$.$.#.$.#.$.#.} = p.d.u.c.p.q.u.2Xq.",
"f v M w.J.N.r.).s u.V.  = { } X.} } } } } #.$.$.#.#.#.@.#.@...} } } / / O.@.#.#.#.#.$.=.%./ } / [ [ } [ [ ~ : d.h >Xp.6.C.r.l 7.",
"w.>Xz.r.oX7.S.C.p.!.C.R.!.<.9XB.<XU.N.OX- #.#.-.* * % * * # # cX;X;X=X- $ * - - * =  .$.#.@ Y 2Xv.V.m.Z. XQ.7.*X).2.C.d.u.z.u.c.",
"q.2.C.y.<.r.r.B.Z.p.:XD.A.Q.A.7.+XF.o ; + o.o.o.+ `.8X~.}.+X# cX-X-X=X- {.7.7.V.`.: t o.O.@ $ bXv x 7.r..XZ.aX1.v @X2.J.b.l y.q.",
"7.fXI.Z.Z.i S.S.N.p.D._.&X.X_.OX~.XX. = % o.o.o.; ^./.R.i.w.o cX-X-X=X- '.5.{.R.uX- r X.X.+ & - R.T.OX~.S.N.a.h w.r.m.,Xc B.M.B ",
"1.#X7.>Xw.d.p.d.v B.a . - $ * - : : ; & } o.o.X.- & : - ; $ & cX-X;X=X& & $ & # - - t o.+.o.] # - & & * : o ; b.S.2.d.p.d.r.I.Z.",
"yXq.Q.p.N.p.N.B.#X9XN . - Q ( _ ( Q ! Q ` X.X.o.) _ _ _ ` Q - cXxXxX=X# e ` _ ( ) _ ' o.o.' Q Q _ _ _ ! ` W - N.N.m.0.<Xp.w.g.b.",
"C.b.d.w..XZ.s N.f.B.B.. $ [ ] { ] ] ] { { X.X.O.[ [ [ { ] { # P >.>.P + e { [ [ [ [ { O.o.[ ] [ ] ] [ ] ] Q ; Z.v C.Z.u.f.a p.d.",
"u.mXr.p.p.p.D.B.f.+XaX. $ $.-.$.-.-.-.$.#.o.o.X.@.-.$.$.$.-.$ - o & & & t #.@.@.#.#.+.O.X.%.$.@.@.-.@.@.#.X.* f.U.N.c U.g j.r.f ",
"2.p.u.Z.Z.p.N.C.U.hXZ.  * * * : = : : * % o.o.X.# = = : - : = - : * * $ : $ * $ - # t X.O.@ - * - : : & : $ ; f.7.Z.2.N q.y.w..X",
"d.q.x M u..XN.1XoXD.*X_.b.B.!.wXl.{.^.~.+ o.o.X.$ }.}.r. X].8X0XzX&X4X5.7X}.*X<._.- r o.X.@ Y E.~. XQ.D.!.XXZ.A.p.Z.5.p.D.N.u.M ",
"<.7.d.7.8.y.g ~.aXpXh 7.A.5XR.R..Xw.}.4X- o.o.X.- [.'.{.^.B.'.5Xw.%X].<.|.N pX5X`.; t o.O.@ Y (.B.~.i.oXB.1.W.p.Z.Z.r.q.<Xd.2.Q.",
"r.N.u.A.2X3XN.<.M D.w.w.6X_.R.~._.V.. & : o.o.O.- i.7.].eXrXT.4X].E._.`.^.wX}.5.OX; r o.o.+ - - r.^.~.Q.1.B.A.~.N.Q.jX:Xi p.S.N.",
"i <.2.3X:Xh N N.7.R.W.yXB.V.aX|.E.R.. + k ` { +.& T.M.B.0X6X[.5X^.i.0XZ.qXl '.i.4X; t O.{ 5 > ; g.Z.<.8.5..XT.yXZ.b :Xr.mX2.q.9.",
"S.1.3XI.v y.}.Z.p.<.i.,X).~._.B.N.&X  = k I e O.: 5X4X8XZ ,X'.0XtX0XoX4XQ.4X[.{.^.- t O.I I < > ~..XwX+XA.F.2.Q.D.u N.N w.d.y.1.",
"r.w.<.N.v r.N. X:Xf.>Xw.V.E.A.R.m R.4 k k U < ; $ 6X9XwXrX0X4X9X|.dX5X0X!.E.T.tX[.- - ; I I k k 7.,XR.R.x.!.s.V.q.N.D.w.G.c p.8.",
"8.d.N ^.N.<.f.B.b.N.p.b f r.XXa.^.E.  # :.:. . .+ 0X].}.8XR.T.%X%XB.0XT.!.B.wX5X8X: e  .:.:. .: pX_.OX!.N.T.B.W.M W.D.N.N.d.u.bX",
"r.w.F.A.v.d.#Xp.p.v V.S.l ~.@X%XOX^.. # -.-.+.o.- ].4X}.E.[.E.4X0X0X0X|.&X4XqX8X+X- t X.$.-.+.; OXE.9Xm eXi.c f.N.p.Q.b.d A.N.p.",
"p.3.N.C.a.oXN.D.T.p.V.+X).~.p.zX^.A.. + =.@.+.o.- |.B.E.|.4XE.].qXi._.i.4X>X^._.a.- r X.-.-.+.; ~.gXQ.2.R.!.W.T.jXU.r.r.2.r.s u.",
"v 7.r.gXZ.U.N.B.p.N.&XT.z *XsX.XN.T.. - 2 -.+.o.$ 5XoX^.4X'.4XeX*X0X[.B.[.].[.&Xi.; t X.-.9 < ; `.pX!.~.r.}.!.Q.N.C.w.G.<.q.y.z.",
"S.b.9X2.Z.r.$XV.!.T.XXp.&X~.<.8XR.sX. : 4 -.+.o.- M wX!.0X[.qX4X'.7X|.(.8X6X`.0XN.: r X.-.0 < - T.OXT.Z.F.R.N.d.B.C.yXp.N.r.d.uX",
"b.y.N.0.W.pXoXQ.d. XW.9XB.~.B.R.>X}.. & 4 -.#.o.$ rX5X4X4X}.6X4X%Xi.0XaX5X4Xb kX}.- r X.-.0 < ; +XW.R.q.F.A.R.d.N.Z.z.F.f.uXu.x.",
"r.d.8.M 1.d.g Z.p.B.5.:XW.{.p.T.W.T.. & $.-.+.o.- ^.!.i.9XB.R.4X4X|.].f.5XwX6X'.*X- r X.=.=.o.: w.).v.Q.!.<.J.+XQ.q.uXF.F.r.zX8.",
"v.w.M p.Z.p.x >Xw.d.r.W.OXy.R.^.V.>X. $ =.-.+.o.+ '.i.zX4X[.0XtX|.(.[.|.eX[.4XrX9X- r X.-.-.+.; E.R. X!.V.s.B Z.Q.7.S.C.w.u.l.c.",
"y.v N fXp.N.B.Z.5.dX.XN.B.r.XX5.B.Z.. + -.-.+.o.* 0Xa.4Xr.R._.5X6XkXa.[.|.[.hXB.rX: t X.-.-.+.; !..XQ.7.aXuXj.Q.c n A.p.v z 2Xb.",
"8.9.v g w.C.B.D.Q.Z.$XW.Q.~.7X8X5.9X. $ -.-.+.X.$ |.7X].N.9Xp.5X6X{.4XlXN.%XE.w.{.; t X.-.-.#.; T.#XZ.<X X XZ. XZ.f D.sXu.r.9.D.",
"z.p.<.u.C.b.N.f.B.N.R.0.W.Q.r.A.N OX. $ -.-.+.o.: zX(.p.&X4X|.eX'.^.{.pX^.'.0X[.D.; r X.-.=.+.- q.R.a.f.u.N.F.A.d.Q.C.z u.3.w.N.",
"y.2.3.r.r.D.p.N.D.p.Z.0.uXV.eXV.Q.5.. $ -.-.+.o.$ 2.{.}.VX&Xx ].4X*X6.#X&X^.7.5.B.; r } -.-.O.- R.6.3XD.q.N.XXB.N.N.p.h l.r.1.i.",
"l.2.z.z.u.u.uXC..XB.v q.Z.!.<.A.W.nX. + =.=.+.o.$ 7.`.~.R.i.&X'.p.}.hX{.E._.~.<.^.- t X.-.-.+.: i.3X:Xw.!.!.D.N. Xd.f.aXw.d.Y.z ",
"@Xh w.>Xg p.w.r.d.7.H.pXV.N.R.N :XY.. $ -.-.+.o.; '.wXE.{.R.R.w._.kX'.4Xw.1._._.2.- r } -.=.+.; s T.XX2.T.C.Q.w.x uX7Xd.d.s..Xl.",
"v.7.S.p.y.C.2.u.2.Z.S.m.7.5.5.B.oXV.. $ =.%.+.o.$ ^.R.E.C.E.{.&X{.h T.t.|.E.^.A..X; r X.-.-.o.- ~..XZ.6.uX.Xw.V.B.N.mXZ.d.q.G.dX",
"n.y.u.u.G.S.7XB.XXoXB.p.B.f.<.w.Q.w.. $ ;.=.@.o.- '.p.^.~.E.*X_.T.&XB.wX_.(.!.Q. X; r ..=.;.@.; Z.i 7XN.yXD.B.2.0.N.z.3.g t.r.n ",
"t.>Xu.d.r.v.w.B.d.jX7.W.D.a.NXT.w.1.. & } ^ Q Q - _.).R.#X7.{.^.!.E.wXR.^.].%XjX#X: 8 Q [ [ | ; :XZ.A..XU.f F.b.M M b.J.dXp.d.t.",
"z 7.q.d.Y.z s C.2.w.d.:XR.Z.2.r.2.f.. - 3 5 , > : {.T.w.aXR._.a.yX|.~._.'.E.E.!.lX- > > 5 w 2 - Z.1.z Z.5.F.S.fXOXZ.s.U.u.Z.r.MX",
"6.u.c.l.d.r.M r.v d.J.u.N v.Z. Xv z.. $ 5 5 1 > - B.~.~.+XjXwXR.T.5.jXq.T.<XM M 9X- > > 5 k 2 ; s.B.7. XoX2.S.x r.y.V.M 7.y.OXC.",
"9.2.t.q.r.0.g J.q.d.{.d.W.p.).B.A._.. - 5 5 1 > - m R.pX_.5.~.I.W._.NXgX^._.~.Z.2.; > > 5 5 1 ; m.N..XB.g d.C u.m >Xz.r.c.t.u.y.",
"D.c.<.b.#Xc r.d.2.N.b.4.Z.r.U.M W.s.. % 5 5 > > - R.7.j OXT.W.<. XOX*X@X).`.!.E.6.; > > 5 5 1 ; !.p.D.C.l./.y.y.5.w.y.v.r.BXq.9.",
"v y.w.>X6.y.v.1XA.iXg <X7.C.Z.gXR.gX. % 3 5 > > - A.T.R.V.R.q.9Xq.p._.).n r.bXQ.`.; > > 5 5 2 - v p.N.>Xt.B 8.r.S.G.>X<.8.m Y.<.",
"2.l.9.u.S.h.g.g.<.J.wXd.uXh r.d.M r.  + > > > ; ; #Xd.N.V.@X).r.B.Q.2.B.+X:X5.f.eX- : - > > > : Z.p.aXC.<X%X2.u.y.<.2.n C.x.q.y.",
"5.P.9.y.Y.3Xn.y.9XS.p.7X2Xp.C.oXZ.&X  X o X X o o Q.{.B.OXM N.n ,Xa.fXw.oXQ.B.fXc o # o o o o o p.N.S.I.e.2.M v.r.I.r.u.y.n dX2.",
"S.<.q.vXI.2Xp l.r.B.p.y.c.d.d.mXx d.1.m.p.,XZ.A.F.r.@XB.C.R.Z.F.i.+Xf.>XhXw.W.Z.p.oXr.N.B.$XuXu.7.H.v.B.u.z yXq.oX#XU.q.n.2.<Xt.",
"N 6.L.6.t.9Xq.M >Xu.b.c C.q.b mXt.C.B.p.uXuXb.Z.F.m p.N.N.V.$XZ.B.f.F.Q.J.r.d.p.M W.N.M m v.p.q.C.b.u.d.wXy.1.dXr.d.j.3Xe.g.2.5.",
"q.P.t.l.u.j.2.u.b t.C.u.w.F.r.M C.M.p.p.w.Z.y ,XZ.<.$XA. X}.D.v.L.2XN.sX2.p.Z.p.N.Z.N.*XC.z dXr.OXp.r.a.y.y.<.d.w.r.A.8.e.n.t.fX",
"C q.t.M x.c.U.q.t.2.H.Y.u.7.B.w.r.C.C.i d.7.N.N.p.N.N.q.2.A. XL.#Xs.r.p.8XS.Z.v.r.m.N.p.H.C.:X).w.r.z.d.d.0.h h sXy.<.w.2.7.x.l.",
"f 9.S.k.t.t.9.jXw.$X<.r.f C.y.z D.OXB w.#Xv .X#X2.D.2.d.R.d.r.3.p.8..Xf.J.r. X7.M 7.7Xu.m.<.q.q.P.6.u.jXd.5.l.<.<.u.c.x fXj.j.2.",
"c.<.6.2.oXt.S.y.q.l.t.Z.r.1.0.s.L.K K K K K K A N s.V K.h.K.h.A h.A A C A h.K V h.A A A C d A C K.C g.g.w.6.q.l.C.l.h.x.bX2.t.2.",
"t.7.nXh 2.6.z l.l.<.5.D.z y.l.r.F T R Y T T T T S F T J H F H H F F F F H J G G G F T J H D J G G D K N y.6.N P.9.F.2.P.5.P.g.t.",
"D.9.h y.7.l.q.6.3.C.l.z.r.t.c.9.L D F F R J J T T H J L G J L L J G G G G G D G L F J F L G G G L G K y.y.n.b.j.z z vXI.g.y.t.n ",
"y.y.z.9.<.x.S.3.k.2.q.g.c.y.>Xd.h.q.n r.N.r.5.u.g y.f.w.y.m.y.B 9.f.h.p.h 7.p.1.a g.G.z.pXd.u.I.y.>X9.n q.6.l mXg 8.v v z.<.n g."
};
