/* XPM */
static char *result[] = {
/* columns rows colors chars-per-pixel */
"64 64 237 2 ",
"   c #1C4100",
".  c #274B00",
"X  c #215200",
"o  c #2D5400",
"O  c #2D5900",
"+  c #315603",
"@  c #345B00",
"#  c #395E00",
"$  c #3A5912",
"%  c #356300",
"&  c #3C6400",
"*  c #3D6B01",
"=  c #3F7C00",
"-  c #426501",
";  c #436B00",
":  c #486D00",
">  c #466E0E",
",  c #457200",
"<  c #4B7300",
"1  c #467800",
"2  c #4D7A00",
"3  c #427408",
"4  c #527501",
"5  c #537B00",
"6  c #597E01",
"7  c #577809",
"8  c #446111",
"9  c #4A7D18",
"0  c #557B11",
"q  c #577A14",
"w  c #617C08",
"e  c #4C8100",
"r  c #4C890A",
"t  c #558200",
"y  c #5C8401",
"u  c #5D8901",
"i  c #55860D",
"p  c #5C830B",
"a  c #5D8A0A",
"s  c #5A9401",
"d  c #5C8817",
"f  c #618401",
"g  c #648C02",
"h  c #6A8D02",
"j  c #62850B",
"k  c #648C0B",
"l  c #698D0A",
"z  c #659202",
"x  c #6B9402",
"c  c #6D9A03",
"v  c #66920B",
"b  c #6B940B",
"n  c #669A08",
"m  c #6E9A0B",
"M  c #729501",
"N  c #789700",
"B  c #739C03",
"V  c #799D02",
"C  c #72950B",
"Z  c #739C0B",
"A  c #799E0C",
"S  c #628411",
"D  c #658C13",
"F  c #6C8E10",
"G  c #63851A",
"H  c #648B1B",
"J  c #6A8E1B",
"K  c #669112",
"L  c #6B9412",
"P  c #6E9913",
"I  c #66941E",
"U  c #6D941B",
"Y  c #6D9919",
"T  c #729612",
"R  c #739C13",
"E  c #799E14",
"W  c #739C1B",
"Q  c #7A9E1D",
"!  c #6DA00C",
"~  c #75A102",
"^  c #7BA403",
"/  c #7DA902",
"(  c #75A10B",
")  c #7BA40C",
"_  c #7EAA0C",
"`  c #76A113",
"'  c #7BA413",
"]  c #7EAA13",
"[  c #76A21B",
"{  c #7BA41B",
"}  c #7DA91B",
"|  c #7FB017",
" . c #6C9222",
".. c #6C922D",
"X. c #759C24",
"o. c #789A25",
"O. c #709329",
"+. c #759B2A",
"@. c #759935",
"#. c #76A426",
"$. c #7CA323",
"%. c #7BA922",
"&. c #7BA32E",
"*. c #81A602",
"=. c #84AC03",
"-. c #89AD03",
";. c #81A60B",
":. c #83AC0C",
">. c #89AE0C",
",. c #92AE00",
"<. c #86B103",
"1. c #8BB303",
"2. c #83B904",
"3. c #8EBA02",
"4. c #85B10B",
"5. c #8CB40B",
"6. c #8EBA0B",
"7. c #91B502",
"8. c #93BB03",
"9. c #99BD03",
"0. c #91B60C",
"q. c #99B40C",
"w. c #93BB0C",
"e. c #99BC0C",
"r. c #81A612",
"t. c #83AC12",
"y. c #8BAD13",
"u. c #81A61B",
"i. c #83AC1C",
"p. c #89AD1A",
"a. c #85B113",
"s. c #8BB313",
"d. c #8DBA13",
"f. c #85B21C",
"g. c #8BB41B",
"h. c #8DB91B",
"j. c #91B615",
"k. c #93BB13",
"l. c #99BE13",
"z. c #92B61B",
"x. c #93BC1B",
"c. c #99BC1C",
"v. c #83AB24",
"b. c #89AD25",
"n. c #85AA28",
"m. c #86B222",
"M. c #8AB223",
"N. c #8EBA24",
"B. c #8BB329",
"V. c #88B82A",
"C. c #95B724",
"Z. c #94BD22",
"A. c #94BC2C",
"S. c #9ABC2B",
"D. c #88AA36",
"F. c #8CB232",
"G. c #93BC33",
"H. c #94B438",
"J. c #95BA3A",
"K. c #9BC303",
"L. c #99C705",
"P. c #96C10C",
"I. c #9CC30B",
"U. c #8FC314",
"Y. c #94C115",
"T. c #9CC314",
"R. c #9ECC13",
"E. c #95C21C",
"W. c #9BC31B",
"Q. c #9CC91B",
"!. c #9FD41A",
"~. c #A3CA06",
"^. c #A5C609",
"/. c #A2CB0C",
"(. c #A8D10B",
"). c #B1D80E",
"_. c #A2C415",
"`. c #A4CC12",
"'. c #ABCD15",
"]. c #A3C51C",
"[. c #A5CB1A",
"{. c #AACB1C",
"}. c #ACD313",
"|. c #A9D815",
" X c #A5D01B",
".X c #ACD41C",
"XX c #B4DA17",
"oX c #BCE51C",
"OX c #BDE818",
"+X c #94C125",
"@X c #9CC424",
"#X c #9CCB25",
"$X c #9AC22C",
"%X c #99C82C",
"&X c #9CC734",
"*X c #A3CD22",
"=X c #A4C927",
"-X c #A2CC2A",
";X c #ABD323",
":X c #A9DA23",
">X c #A5D22C",
",X c #AAD52B",
"<X c #ADD92C",
"1X c #B5DC23",
"2X c #B1DB2D",
"3X c #B9DE28",
"4X c #A5CF33",
"5X c #A3C73A",
"6X c #ABD433",
"7X c #A8D539",
"8X c #B3DC32",
"9X c #BADE33",
"0X c #B6DD3B",
"qX c #B6E424",
"wX c #BBE225",
"eX c #B5E22A",
"rX c #B7E737",
"tX c #B9E334",
"yX c #C2E71E",
"uX c #C2E627",
"iX c #C7F228",
"pX c #C6ED35",
"aX c #C1E538",
"sX c #CEF63A",
"dX c #87AA46",
"fX c #8DB145",
"gX c #97BA48",
"hX c #9EC544",
"jX c #A7D245",
"kX c #A9D34B",
"lX c #B2DC44",
"zX c #BBE645",
"xX c #BAE654",
"cX c #BDE466",
"vX c #C3EA42",
"bX c #C8F548",
"nX c #D3F540",
/* pixels */
"p A L z cXv.g b h.y P 4 }  .v y l k b X.x Z x _ # g t.z E A c z g Z ( 5 b l ` } k x i.z z P P l 2 N.k j 5 q  .L z c L k j k y u ",
"@ K k dXd H , b D 6 k g D Z z x < M.` Y k c ` c L p Z c c B c c Z z D.J.Z W.K _ ) p m b.&Xm R k R N.L v Y 5 m.c z L U L . k & . ",
"D z J.+.a v & D z g $.u ~ z b R z Z m c R x l Z : O c z / m B B zXM F.B ;.m M y 6 L ( c k ~ ) c g g Z 7X< b ` v c t m k U R b b ",
"k 8 ~ g L 4 < b L K v R Z P 4 P b E z c B Z ~ Z c Z z M % #X1 w.4.d ~ Z 6 jXZ ~ g / 2 } c x 6 N.h L c b n c c m % k k * k g D b ",
"O.u n.i t R D k b b b L , W x c m 6 ! ) c B ; ( ~ ) m V ( ) x.H.J.4 - ~ E { ^ $.-X- ~ :.@ ( & m m x & 6 u 4 U P ].L y D y J u ..",
"0 K , k k z x ;Xb 7Xl Z t ` z m m Z c Z u M Z c ~ B ] ;XB t ( rXZ ( [ zX% t t Z c Z z ~ eXt c ~ ) M R b rXz t L D U ' n ; I i m.",
": b v b 1 a & @ z b R b c Z ( I Z 4 u Z * Z ) y 4 B ^ c % t.c ^ ~ Z #./ a.t ; C g x.z B 0Xc A x 1 b o z * 1 U / t Z 6 7 & t k m ",
"g kXz k rXk b O.A g m 2 R t c ( ) .X( n _ _ ( ) u./ t ~ :.' ) t.< h 4.) B / k.n A r.~ e 2 c ) v A.E A : u Y b : b n x.m y k k y ",
"k z m R k F.L ; 4 8.Z.W z c ( W c P g ) t u g _ ^ :.: 6 d.' _ ) =.h ;.) y h.' Z 6 V g u.4 ^ A Q w.: < m t B T z 8Xb H X.v c F jX",
"g 7X[ g t * b b t.W 2 N.B Z L ~ ~ E bXS ) g W.^ m.V g t.' i.N - j.x Z.;.^ h.] *X~ } =X:.b ^ x ~ ~ / c ( ( Z m 6Xv.W N.u v & f.L ",
"b - m k x * c Z c ( ] t Z =.E ; 1 M ^ V m.^ C u V / y =./ < :.Y M V y :./ _ / x a.:.t.2 C < ' ~ ~ _ E v F tXi ) v x 6 L m > k k ",
"1  .; t R %.[ L 4 c m h.~ T ) A ! c L y ; ' f ' / A g t.^ r.=.) c ^ vX_ -._ =.9XM :.t.) / ~ ].6.d.` ) ( n P.a g 2.x # m Q b P z ",
"k b 6 m h m R ] ! eX3 x Z %.B / } ~ ;.4.;.f *.V j.j.=.>.E.y 5./ Q.t.^ t.^ r.>.l :./ y ) f.- b ) ~ ;.m.Z ,XE gX~ b c M t m O m - ",
"b z u.) ` m @ k u ( R y a.) ^ M V g 4 V ) 6 4.t.g *.6.e.B _.5.a.1./ y *./ n.;.L.y -.>._ <.( < x z f < v.C i.~ o 5 y o : b p z & ",
"4X,Xv j m =.B c c L Y.i.A / ] ^ S y ) B + x - 2X5.4.y :.<.E./ / 1.6 A c.V :.*.a.:./ :.>.4.:.@X/ p.4 ) w B m ~ %.Z 1 Z m m U v z ",
"m c x b p V R f.A.b Z Z g n.B f.*.f S.hXg y 6 ; t.*.:.h o >.6.g ^ 4.R t.M =.8.0._ =.B.*.<./ _ M ~ =.H.R A R b Z Z c U ~ g m V.z ",
"% < 4 c ] ~ B 4.& Z / x ~ c 0 y T O.5X*.^ t.M 1.1.=.1Xt 0.h 1.3.1./ - -.t.=.>.4.:. X% ) W.o ~ ; f ;X^ ~ B 4 Q.A * m.B g ( b - g ",
"b M.P c } z R ( M 4.( =.=.t Q./ S.Q ^ a.<.=.1.%X' >.5.4.k.1.k.=.~ :.x.1.V 4 =.<.=.=.<.5.*.=.#XH.T / o.;.u.:.g +X4.u ) Z m P m Y ",
"z y ) b y x c / ) B n.] r.:._ g j.} y -.h =.=.-.) 0.R.4.w.d.R.1.;X7.t [.5.g g *.6.] 1 6 d.i.s.gX< : x M :.) <Xt < h.y } R - b b ",
"z 6X+.) ( O [ ` B B ] 5.k.:.5.p.-.t.8X-.|.=.=.5.0.1.<.-.M x [.4 1.1.7.k.7.g 0.-.#X>./ N 1.5.g <.=.*.a.<.` ~ V & x c ` Z., / m 5 ",
"p t.k h.x B V R < ~ @ h ] :.*.t.=.=.;.*.1.>.;.1.3.I.A.1.M M w.1.6.I.~ 8.y - 6 _.<.t..X6 = f N W.:.eX6 ^ ^ ~ n.E ] t Z Z Z c +.( ",
"W.b =.Z ~ B ~ ^ p.Q.6 V ;._ <.p.y / 5.Y./ z.P.@X0.k.7.=.x z 8.y T.iX].wXy 8.0.h 1.7.XXy.:.w.<.:.f.& y ) Z A R ~ B E k S.M c K R ",
") W Z x :.( @ ^ A ^ ~ ) r.y *.V P.j.x k./ 5.E pX0.1.=./ 4.l.8.w.V e.8.1.5.k.U.6.k.7.0.: & h 1.;.=.*.=.1.W =.c ^ < ~ ) Z A @ V Z ",
"m 0Xx ~ B Z ) ) ) s.,Xy =.x.=.Z b.-.1.$XV 1.0.=.1.6.2 !.qXl.k.:.8.sX_.I.c.z 5.s <.-X0.5.I.=.1.t.M / t.t.^ 2 ~ ) $.^ : #.& H x % ",
"u Z Z V ) B ( ( $.eX) k.t.a =.j.h./ < 4.*.*.=.n 1.2.I.9.0.w.'.9.8.$Xe.nXX 8.oX8.k.1.- y 5.6.:.W.5.M B ;./ & $XA g ) y 6 s b z t.",
"Z s : 5 m t.~ D.t.' x.a.Z *.-.*XC 0.1.1.=.3.l.8.).w.e.x r.7.I./.tXw.8.u Y.w.Z.6 6.1.-.0.N =./ <.1.t.:.' :.p.^ ) B ) g Z ' ) B 6 ",
"y g A g k l - / ;X-X* g ) P.*.=.t.x 6.K.3.w.9.=.K.9.7.j.1./ 1.~.x k.9.t e.6 ].P.6.V M g.f.V 5.3.^ 1.x u./ y r.V ) ' M k A.Z u ] ",
"c ~ m ] F.G.~ y 4 r.x x R.1.=.<.5./ 5.8.w.5.8.w.k.N g 8.{.XX*.I.e.-.5.6.1.Q.l.f a.8.8.8./ <.<.s.c -.1.:.6 ^ _ 1.~ _ tXm.o B ) B ",
"o t g J.o.; 5 ~ z <.:.Z./ / ,Xe.-.-.g *.u eX<. Xt ^ ! ~ /.I.9.I.1.V ^.) ).- q.x K.^.=.s.}.a.1.y d ) y j g t./ Z.) 1 v.c lXy n k ",
"` u J.X.1 C w.) B t x Z.4.=.>./ ~ k.4.1.>.*.L.8.V I.K.T.w c.8.I.oX^.u.K.-.9.K.7.1.0.t L.s.h =.z 1.t.].s._ r.y :.' . ~ 6 x Z b y ",
"x z t ~ < x ~ ' v.A m.z *.1._ =.4 -.1.1.^ z e.| x I.W.`.XX~.K._.e.7XI.~.y.-.*.OX8.8.1.8.qXY./.-.g S.=.=.U :.C / z B ' c [ ; M k ",
"j A y <.^ y ) ^ E V V 1 % x p.^ 1.:.1.x 1.w.2 8.B (.7.w.T.=./ z.j.V ~.*.>.^ [.P.I.8.6.0.0.8.8.1.>X1.a.-.~ *.^ ) 6 :.' ~ ~ B m gX",
"c b } / R Z f.B B < / ` & 1.h.k.y.5.7.=.T.5.c.k 7.8.L.q.-.9.-.K.~.~.^.P.l.K.(.l.y./.s.0.e.I.l.1.s.=.W.2 {.M 1 ) V B :.P $ _ ~ B ",
"M u ~ ' N i.^ ' *.B *.s.4.-.B aX4.<.B T.y 3.8.c.'.w.V -.e.K.-.8.).M 5.M K.N.1.1.~ q.}.<.k.6 7.a.1.8X>.t =.1.;.^ tX%.c x u c & m ",
"< h c 2X) %.V ~ V Z d.=.- Y.<X>.V / f.) *X3X^ 9.w.I.t.1.K.7.~.[.d.(.8.^ 9.w.8.k.N 7.>.l.8.e.5.pX6.#X4.-.c w.5.:.V ( x Q 6 m b P ",
"` R E.u ' c h./ :.*.p.B d.<.y Y.*.2X*XC ) a.3X:Xe.6 [.5.^.9.).K.8.d.w.8.R.K.8.`.~ 1.'.@ 7.6.) x.;.s.*.) ' =.~ Z ) ( #Xc ~ c ( N.",
"R l ^ D _ *Xi.:.B ;.:.E.^ 1.^ <.M.6.k.d.1.T.M Y.e.}.T.K.L.8.w.K.W.M I.;Xw.I.1 uXw.l.h.1.~.>.x 1.d.;.=.s t.:.*.Z ^ ' m } A #Xb H ",
"c A u 4 t Z & ) B ) g v.;.7.c *.*.=.9.W.z ,./ z I.8.5.M E.*.<.K.K.e.9.V I.'.8.8.Y.4 w.E.V : C 5.x -.T t.t.6 %.j.) x Z.] ] c sXk ",
"R x 6 Z ;.V < v.x B M :.a.L *.-.;.g.x ;./.k.=.-.`.1.M pXI.9.~.OXw.3.9._..X9.I.XXQ.x 1.w.=.=.>.y -.:.r.-./ C 6 ( 4.z ` ( x m k U ",
"L < t >XM ~ ) ) g hX] V / M t.y / ^ <X3.w.y.^ I.9.^.V 9.x =.5.I.e.yXN 9.7.8.wX/ XXM y.6 1.B z z >.t._ h ,X@XG :., 2 _ B < * F.R ",
"k j < % x ( ^ ' :.) h.:.:.<.w.T.f x.6 Z y.0X-./ y l.e.P.~ T.M I.L.5.I.uX^ j.<.x 7.8.6 - ` : p.j.*.h.) C.r.r.) r.) & ' <XZ c v ' ",
"m M y m ( R ( B ^ ~ *.l :.:.c _ 6 y.x s.c.=.h =.7.pX3.M l.P.w..X8.1.1.;X7.7.`.8.] =.0.y.5.B 7., z =.V ' C ~ ] ) Z _ ) * m p x ~ ",
"b u d x c ' ~ ^ ` ~ ) g Z._ |.<.:.g 5XR ;.K.>.8.^ y 5.w.sXd.: L.P.k.g g.0.1.h y *.7.8.:.~ j.4.w.=.g H.;.b B p.^ ~ V M - b c t M ",
"L u P Z m m Z.( t.*.< z ) 5.1 4.:.&X5X3Xz 2 5.4.5.z 6.=./ M k.1.~ 0.wXk.-.4.>.y 1.:.6 =.=.] s.( M H.n.z >.:.] ^ t.Z ~ 6Xx m &.: ",
"d.- x m.& c c c Z h } -X/ ~ =.y b.&.=.7.f d.*.`.l.7.{.-.0.-.=.z 5.uX8.K.x 6 6.5.t t >.1 <.s.V T & / p.u *.A _ z , $Xx.Z Z m t.K ",
"P b ` B m A t m y ) ` Q g f y ^ u./ 3.M =.1.1.a.1.3.-.-.( -.0.l.1.* *.F w.-.1._ a.<.4.>.z m.=.y <.t.( g #Xt.z / ^ ~ lX( Z z } 5X",
"W b m m [ R Y./ i.u./ B ^ A y g _ c n :.x 5.,Xt.<.7.M 1.<.=.k.5.*.l.~ [.5.3.>.:.t.=.4.0.6._ h.=.) + Y.~ @X' ) u k ~ m a - K c 2 ",
"v B.m Z c Z x ) A tXg ;.r.N zX=.x y W.d.t.z : s.-.>.5.-.h.g 0.1.>.1._.<.1.9.k.9Xp.M M 1 =._ <.| n.) / ] %.% ] ( 5 4 E } 5Xc Z n ",
"- h z A #.: @ ( g z A v.=.A t x y ^ / :.L =.M -.:.k.=.z ;X<.d.B #Xw.1.5.1.1.>.-.iX5.=.p.s.V ^ / ) y - ^ g ] ` 7Xa.) C $.c ` c kX",
"s m U K Z c 4 c 1 ( } Z 6 R ) t.< L V r.; 1 b 1.;.^ 1.=.s.9X=X=.;.f tXz *.S.4 6 W.^ 9 #X^ h g ,XC / h ] p.t E : b b / 6 g b t.` ",
"k f b z x b * [ g ( 0.A :.M 4./ _ 5.] =.y ~ :.Y.d 4 ;.[.5.f <.+.;.4.zX2X1.4.<.A y c T.=.0.i.h 4.W ~ r.;.- Z q b 4 m.R x R b Z L ",
"] Y t R h., M Z y ~ R r ( x $.6 ] Z a.2 =.^ g ;.6.4.u e a.*.^ 6 r.t.x.d.4.d.>.-.g *.B *.v.h ^ ' >.Z ] ~ L 2.L m u x b R b xXz k ",
": m x M.g Z R D._ %X% A.g Z ) 0X/ 9Xx.[.Y.;.B 4.l.t./ *./ =.v Q.x B 5.>.2 x gX:.1._ ] t.c ~ _ / : B ~ V.k 4 k c E [ V.y a 2 n.6 ",
"y K k P ` G S D 2 } .Xm +X, M ( 6 x y _ ^ ) < ) ;.g.A ~ ^ d.4.x / :.g ~ s.B.f ' :X1.X.- 6 ` z B ) V ,X( $Xk.y m b t u 2 Z U z z ",
"g I k v &.H.R x Q.` c Y.F.c ( i.) k.M y ) *.^ ^ g :.k.^ a.2 ^ 2 S.V ,Xg u.;.*.4X, ) <.) ^ M ` <XM ~ ' O.n t 6 T b W m m b 2 4Xu ",
"` 6 z fX@.V.+ T c ) V b U A m zX< ( f Q B Z.) _ ] x d.~ ) ;._ _ x y.A B.qXz t.) B u.B ~ ~ x.&Xc z { R ^ m : @Xz i.h.[ g R k G.D ",
"6 k @.g k Q.z 4 V.b R 1 Z z 1 lXk ( ^ c $X%XE ' t.2 M ^ ) / M.) *.A ] :.} x Z B 6 ) ~ < 4 R C k Z R c A {.b p 4Xx ( I G.k K u k ",
"g  .k K c I g m 2 x ( m b ] M 4 ( R B V x )   Z.) t h.:._ w.r.R o.F.^ 2Xy ~ ' B ~ _ ~ x.Z : 4Xc a.Z c ~ b b t Z x c ' k c Y K -X",
"0 z v 5 I U %.z k u ] %.m g / z ~ ! ~ O m h Z ~ Z B ~ z u _ ]  .u.Z z M Y.` ) R c ` ( c { ( m.4.x c K A b h ; * 1XF t z u g U L ",
"& k ` K v v a aXb g.5 c & ( m ; ` 4.0 x k., :.s.t ' u Z ;.c c t Z g t.^ r.c r.h 4 h Y.c [ t z z I k m rXZ g v t t m Y : 4XH J g ",
"Y t g k f.v R b z K b ` b t k M 6X_ m c g R A B y Z 5 E ( ` ^ Y ~ c Z g A ) t , ~ Z V B x o x b c B b K x g z U ( b J L gXa k k ",
"k z jX* u g : K L 5 g _ : m L x u R 2 m ( :.g c - B c c Z Z ) Z ( c B M A Z ( ] b m R ~ M 0 k b z t n 6 L g 6  .j } g H g  .k k ",
"' k * b z L z g i ) K P c b Y l C m c Z Y.m Z Z R ` _ ( c ` ' ~ R Z L ~ c m : c m z L a a.c Y x N.m k b b Y R H - : fX+.D m k 2 ",
"b b P k t J ' p D u m k U K f.` S z 2 c c c g m % m Z x b R m 7 k ) D c - z Z f @ D $.P #XZ c $.v m.k 4 z g & zX& j > 2 L t < v "
};
