/* XPM */
static char *result[] = {
/* columns rows colors chars-per-pixel */
"64 64 250 2 ",
"   c #4F2913",
".  c #5A341B",
"X  c #65361B",
"o  c #6B361A",
"O  c #6B3C1C",
"+  c #4A3526",
"@  c #593927",
"#  c #4E3730",
"$  c #643825",
"%  c #6B3D23",
"&  c #623C2B",
"*  c #6D3E2A",
"=  c #723C24",
"-  c #783926",
";  c #693530",
":  c #1C4100",
">  c #274B00",
",  c #2D5700",
"<  c #345B00",
"1  c #395E00",
"2  c #3A5912",
"3  c #356200",
"4  c #3C6300",
"5  c #3D6B00",
"6  c #69421D",
"7  c #436B00",
"8  c #456A03",
"9  c #457201",
"0  c #4B7300",
"q  c #4D7A00",
"w  c #427408",
"e  c #517502",
"r  c #537B01",
"t  c #597E01",
"y  c #577809",
"u  c #476F15",
"i  c #577B13",
"p  c #544B2C",
"a  c #484E3E",
"s  c #5B4337",
"d  c #4B513E",
"f  c #6B4225",
"g  c #65432A",
"h  c #6A422A",
"j  c #744429",
"k  c #654535",
"l  c #6C4433",
"z  c #774933",
"x  c #7B5030",
"c  c #55632E",
"v  c #576633",
"b  c #544C48",
"n  c #544E51",
"m  c #644D43",
"M  c #76574A",
"N  c #70584C",
"B  c #766558",
"V  c #786D67",
"C  c #843F2F",
"Z  c #CD3832",
"A  c #844F25",
"S  c #845437",
"D  c #B64B3C",
"F  c #94623D",
"G  c #945844",
"H  c #AE5343",
"J  c #947056",
"K  c #A77858",
"L  c #897467",
"P  c #967865",
"I  c #8B7671",
"U  c #EA6A57",
"Y  c #558201",
"T  c #5C8402",
"R  c #5D8901",
"E  c #5A850B",
"W  c #598515",
"Q  c #618505",
"!  c #638D02",
"~  c #698D03",
"^  c #648C0B",
"/  c #698D0A",
"(  c #669202",
")  c #6B9402",
"_  c #679806",
"`  c #6D9A03",
"'  c #66920B",
"]  c #6B940B",
"[  c #6E9A0B",
"{  c #739C03",
"}  c #759A06",
"|  c #739C0B",
" . c #658C13",
".. c #668A18",
"X. c #6B9412",
"o. c #6E9913",
"O. c #699518",
"+. c #6C941B",
"@. c #739C13",
"#. c #769A16",
"$. c #739C1B",
"%. c #75A103",
"&. c #7AA403",
"*. c #7DA904",
"=. c #75A10C",
"-. c #7AA40C",
";. c #7DA90D",
":. c #76A112",
">. c #7BA413",
",. c #7EAA13",
"<. c #7BA41B",
"1. c #7AA51B",
"2. c #7FB017",
"3. c #6C9224",
"4. c #759A28",
"5. c #759935",
"6. c #7AA425",
"7. c #80A602",
"8. c #84AC02",
"9. c #81A50B",
"0. c #83AC0C",
"q. c #89AE0B",
"w. c #86B103",
"e. c #8AB405",
"r. c #84B10C",
"t. c #8BB708",
"y. c #92BA0A",
"u. c #85AA16",
"i. c #83AD14",
"p. c #82AC1C",
"a. c #8BB313",
"s. c #88B418",
"d. c #8AB31D",
"f. c #92BA15",
"g. c #93B817",
"h. c #92BC1C",
"j. c #85AC26",
"k. c #8AB524",
"l. c #95BD27",
"z. c #8BB132",
"x. c #94B837",
"c. c #98C204",
"v. c #96C218",
"b. c #A8C71E",
"n. c #ADD31E",
"m. c #9AC526",
"M. c #97C531",
"N. c #A2CB25",
"B. c #ABD62B",
"V. c #B1DA2A",
"C. c #A3CB39",
"Z. c #A9D437",
"A. c #B3DB35",
"S. c #B2E22E",
"D. c #B7E636",
"F. c #C6EC38",
"G. c #AF815D",
"H. c #90B446",
"J. c #98887B",
"K. c #B9876A",
"L. c #A68777",
"P. c #B38D70",
"I. c #BC9478",
"U. c #C58E6E",
"Y. c #C9926F",
"T. c #C7986C",
"R. c #C59473",
"E. c #C79976",
"W. c #CC9C7A",
"Q. c #D49A76",
"!. c #D19D7C",
"~. c #CDA17B",
"^. c #D3A27D",
"/. c #D8A37A",
"(. c #ACD646",
"). c #AED456",
"_. c #B9E744",
"`. c #BAE654",
"'. c #C4ED49",
"]. c #988C8A",
"[. c #AD978C",
"{. c #BD9E85",
"}. c #B0A18E",
"|. c #B8A798",
" X c #BEAAA9",
".X c #C99C82",
"XX c #D59986",
"oX c #D89A93",
"OX c #E3999C",
"+X c #C8A385",
"@X c #D4A283",
"#X c #DAAA87",
"$X c #C7A794",
"%X c #D7AD93",
"&X c #DBB396",
"*X c #E2AB90",
"=X c #E5B794",
"-X c #E4B59A",
";X c #E89AA9",
":X c #EE97B3",
">X c #F298B6",
",X c #D1B3A2",
"<X c #EDB2B2",
"1X c #EDC49E",
"2X c #F7C89B",
"3X c #DAC9BB",
"4X c #ECC9A7",
"5X c #F7C4A3",
"6X c #F5CCA4",
"7X c #FBCDA4",
"8X c #F5CDAB",
"9X c #F9CDA9",
"0X c #EAD4AD",
"qX c #F9D1A5",
"wX c #F5D1AC",
"eX c #FCD2AC",
"rX c #E6CBB5",
"tX c #F7CBB5",
"yX c #EBD3BA",
"uX c #F5D3B3",
"iX c #FED3B2",
"pX c #FAD7B9",
"aX c #F7B7CB",
"sX c #FEBBCA",
"dX c #DDCFC2",
"fX c #E8D6C6",
"gX c #F4DAC5",
"hX c #F3D1D1",
"jX c #FBE3CC",
"kX c #F1E5D3",
"lX c #F7E5D5",
"zX c #FDEAD5",
"xX c #FEEEDB",
"cX c #FFF2D9",
"vX c #FFF9DA",
"bX c #FDDDE2",
"nX c #E7DEFB",
"mX c #F9EBE6",
"MX c #EFF8EE",
"NX c #FEF5E4",
"BX c #FFFBE4",
"VX c #F5F3EF",
"CX c #FEF6EC",
"ZX c #FFFBEC",
"AX c #EEFDFD",
"SX c #FDF5F4",
"DX c #FEFCF4",
"FX c #F9F6F8",
"GX c #F4FEFE",
"HX c #FEFEFE",
/* pixels */
"E | X.( `.6.^ ] h.T @.r 1.4.' T ^ ! ] $.) [ _ &.1 ! ,.! =.=.=.! ! ` | t ] / >.p.~ ) j.( ( o.o. .q d.'  .q i 3.' ! ` X.~ E ^ E R ",
"< X.E H.....9 ]  .Y ^ !  .[ ! ) 0 k.:.4.! ` >.) #.E { ` ` } ` { | ) z.x.| v.X.-.-.E ] j.M.{ @.~ @.l.] ^ $.r k.` _ X.O.X.> ! 1 > ",
"^ ! x.4.Q ' 4 ^ ( ! 4.R %.( ] @.) | [ ` #.) ^ =.8 , { ( &.[ { { _.) z.{ 9.] ` T t o.[ | ' %.-.` ! ~ | Z.0 ' >.' ` T ] ' +.$.[ / ",
"^ u { ~ O.r 0 ' O.X.( @.| X.e o.] @.) ` } | %.| ` | ) ) 3 m.q y.r.W &.@.t (.| { ( 7.0 2.) ) T k.! X.` ] _ ` ` [ < ! R u Q !  .[ ",
"3.Q j.W Y o. .^ ] X.) X.9 $.) ` | r | -.[ { 8 =.&.&.` { | -.h.x.x.r 7 =.@.<.%.1.N.7 %.0.< -.4 } ] ) 4 t R y +.o.b.X.R  .R ..E 3.",
"i O.9 ^ ^ ( ) V.] Z./ @.Y :.( [ ) | ` @.R { ` ` %.{ ,.B.{ Y >.S.` | <._.3 T R @.) | ( %.S.Y { %.%.{ @.` D.! Y X. .O.:.' 8 O.W k.",
"8 ] ^ ] q E 4 < ( ) @.] ` [ -.O.| q R | 5 { &.Q e { &.) 4 i.` &.%.| 6.*.a.T 7 ] ~ h.( ` A.{ | ) q [ , / 5 q +.*.T | r E 3 T ' _ ",
"! (.( ^ D.^ ] 3.| ( [ q @.Y ` =.;.n.=.' ;.;.=.-.p.&.R %.0.>.-.i.0 ~ r.&.` &.f.) | ,.%.Y q ) -.o.l.@.| 8 R X.[ 7 ' ( g.| Y ^ ~ T ",
"! ( | o.^ z.O.9 e y.h.$.( ` =.$.` @.! -.R R Q 0.%.0.8 t f.-.&.-.0.~ 9.9.Q a.,.{ t } ! u.r &.| #.y.8 q | R { +.( A.] ..4.( ` X.(.",
"R (.:.! r 5 ) ] q.$.q l.{ [ o.%.| | '. .-.! v.. = % % t.,.p.} 5 f.~ h.9.&.s.,.N.&.p.N.-.~ 9.) %.&.*.) | | | [ B.j.$.l.Q ' 4 p.' ",
"o.7 [ ^ ` 5 ) | ` -.,.Y | 7.#.8 8 { *.{ p.&.$ ^.2X1X*XS f 0 0.$.{ { R 0.0.;.7.{ a.q.s.q @.0 >.&.%.;.@._ X.S.E -.' ` t O.[ u ^ ^ ",
"8 +.7 T @.6.<.X.e ` [ d.%.#.9.| | { [ R 7 >.$ pX2X8XqXiX#X+ ;.;.` } '.;.8.*.0.A.) i.9.-.7.%.v.t.s.>.;.-.] y.E ! w._ 3 ` <.' o.( ",
"' ] r [ ^ [ o.,.| S.w [ =.6.{ *.u.&.9.r.-.% 2X!.OX;X*X/.7X1X8X-Xl + &.i.&.,.0.] 8.*.Q &.p.7 / -.&.0.j.[ Z.[ H.@ DXHXHXBX+ , | 8 ",
"] ~ 2.-.:.| 1 ^ R =.@.t r.-.%.{ } Q e { . W.5XXX;X>X;XoXT.qX9XiXpX4X$ @ @ j.0.c.Q 8.0.9.8.;.q ) ( R e p.      xXFXHXGXZX# E Q 5 ",
"Z.B. .Q [ 8.{ | ` o.v.p.-.&.0.-.^ t | } h 7XoX*X:XaX>XOX/.W.6X4XeX5X-XtX!.g *.i.0.*.i.0.e.;.m.*.q.e | ..iX6XuXSXGXHXHXCX; $.' ) ",
"] { ) ] Q { @.p.l.( { { ( j.{ p.9.Q l.(.$ qXQ.;X>XaX<X;X@XW.1X1X6X8X8X7XU.. % O f & s k = X ;.{ l X O O 1XtXyXHXHXSXDXVX+ ] k.( ",
"3 0 q ) ,.&.` r.1 { *.` %.g @ R | 3.C.7.* /.XX;X:XbXhXhX;XXXXX/.qX8X7XeX9X~.@X5X8XHXHXHXfXpXJ j Y.#X#XeXuXdXDXGXHXAXZX$ | ` 7 ! ",
"] d.@.) j.! :.=.{ r.=.z O 1X6X@ l.4.&.0.= Y.oX;X;XaXVXbXaXOXoXXX#XeX5X9X9XeXW.9XeXHXHXHXFXHXFXfX$ E./.*XyXHXGXHXHXAXDX; o.o.[ +.",
"( R -.] T ` ` &.=.{ j W.T.eXpX+ g.u.T q.$ XX:X:XsXmXFXGXaXaXOXOX!.E.6X9XwX6X9XpXrXHXHXHXHXHXHXFXHXf 6 ^.rXHXHXDXHXDXDXk @.7 ] / ",
"! Z.4.-.=., :.:.%.%.=XqXpXeXP ].q.i.A.e.X oX>X:XhXbXFXHXGXbXhXsX<X&X&X9X9X8X7XyXHXHXHXHXHXHXHXHXHXxXuXG.K ,XjXHXZX& ; l.8 &.[ Y ",
"E p.! k.) } { | 0 ,X5X4X9X%X+ q.9.8.9.7.* XX>X>XaXhXFXHXHXSXtXtX9XiXiX9X9X6X7XfXHXHXHXHXHXHXHXHXHXHXSXjXO W.7XjX X}.].{ @.` 4.*.",
"v.) q.{ %.{ %.&.a.& 6X4X2XU.# u.T 7.t.v.& !.OX:XaXxXHXDXlXzXuX8X7X9X9X9X6X8XtXfXHXHXHXHXHXHXHXHXHXHXHXlXJ G.2XiX@ #./ l.{ )  .#.",
">.#.| ) ,.-.1 %.| f 9X9XgXL.].{ c.g.) f.J U.XX;X;XsXbXxX7X7X9X8X9X9X9X6X7XuXlXDXHXHXHXHXHXHXHXHXHXHXHXBX4XP U.9X= | -.[ | < { | ",
"[ A.) { { { ,.&.-.l 8X9X=Xs 8.} j.q.e.m.{ o Y.U.;X<XtX9X9X7X8X7X8X9X8X8X6XuXHXAXBXHXHXHXDXHXHXHXHXHXFXHXNXyXz Q.f &.0 4.7 ..` 3 ",
"! { [ %.-.{ =.[.g pXCXW.I.# w.g.g.8.0 q.7.  T.#XW.5X9X9X7X9X8X9X9X7X2XeX0XDXHXZX4XMXHXHXHXHXHXHXCX3XfXHXHXcXj XX~ -.T t ! X.( i.",
"@.( 8 y | i.&.L.* 0XHX- m q.q.N.] y.w.w.w.t.f qXqX7X7X6X8X7X6X6X6X4X6XgXDXHXHXBXwXyXHXHXHXHXHXDXyXtXkXHXGXvXtX= } &.~ { ;.%.{ r ",
"T ! -.! ! / 7 J.f yXCXl n v.7.q.i.) y.c.t.y.* 5XeX8X8X7X6X9X9X8X9XyXAXAXHXHXHXHXFXHXHXHXHXHXHXHXHXHXHXDXHXFXHXn -.-.{ ! l.| R i.",
"` %.| ;.z.x.} P.. fX9X+ n t.8.w.e.7.y.y.y.% #X7X8XqX7X6X7X6XfXkXGXFXHXHXHXHXHXHXHXHXHXHXHXHXHXHXHXHXHXHXHXHXFX# %.;.D.j.> { -.{ ",
", Y R x.j.8 N W.eXHXg v.*.*.B.c.e.8.~ 7.R X 9X5XuX7X6XqXeX3XDXHXDXZXCXDXFXCXDXHXHXHXHXHXHXHXHXHXHXHXHXDXSXDXBXDX-.9 j.` _.R _ ~ ",
":.T x.4.0 ] M W.qXHXg k.r.w.q.&.} g.8.e.% W.9XwX9X9XuXfXAXGXxXcX7XW.W.% % l $XCXCXHXHXHXHXHXHXHXHXNXxXR.o . *XVX,.> %.t ) [ X.T ",
") ) T %.0 ` M .X6XHXg ( *.w.;.8.e e.e.e.6 eXuXeXeXuXNXHXGXZX8X4X{.& & $ $ X j f @XFXHXHXFXFXGXHXFX.XI.. @ p X GX) { >.` 1.8 ` ^ ",
"Q | Y e.%.Y M .X6XHXg q 4 ) u.&.e.q.e.) X eXyXZXGXHXAXGXBXHXGXHXDXHXHXSXSXXXo % @ I.HXHXuX7XxXDXR.= X j |.AXHXHXr ;.>.%.{ { [ H.",
"{ ) p.;.@.| M W.6XHXuX@ b t.d.g.a.t.e.q.O W.4XuXZX&XQ.Y.{.E.+X|.GXDXHXHXHXHXHXDXNX|.HXHXFXHXHXDXgXZXDXGXHXGXFXAX.X{.}.$.2 ;.%.` ",
"{ E { ,.} j.M !.6XHX6Xf b 8.{ F.e.w.{ v.% E.1X^.@XhXSXHXBXCXCXgX+X+X|.DXHXHXHXFXHXDXHXHXB s g k DXHXDXHXHXkX{.{.FXCXvX$XR ` 4 [ ",
"8 ~ ) V.-.2.M .X6XHXqX= n v.V.q.} 7.s.&.% W.1XW./.mXDXHXHXGXSXcXQ.HXHXHXHXHXHXHXHXDXHXFXHXP - GXSXHXHXHXHXHXFXMX{ =.( vX$X] ' o.",
">.#.v.R >.) m +X7XDXDX@ s w.T f.7.V.N.| f W.+XZXGXHXGXHXGXHXDXDXGXHXHXHXHXHXHXHXHXHXHXDXHXP - GXDXHXDXHXHXFXDXZX&.-.m.ZX}.` | m.",
"@.) =./ ;.N.p.L.g uXHXfXtXs &.8.k.y.f.@X.X= W.BXZXGXHXHXBX@X/.T.{.HXHXHXHXHXHXHXHXHXpXvXHXeX6XCX9XHXDXHXHXBX.XT.%.>.[ 1.=.m.[ O.",
"` | Q r T } 4 L.k tXHXSXcX# { 8.9.$ @ 6 X z #X{.vXDXBXrX{.HXGXGXDXHXHXHXHXHXHXHXHXZXU.7XqX%XT.iXT.HXHXHXDXzXiX. BX) m.,.2.` F.E ",
"@.) t { -.{ 0 L.% yXHXDXHXSX* h * pX9XeXpX% - Q.!.lX,X1XuX2X9XkXAXHXHXHXHXHXHXHXHXHXDX$XQ.nX&X$XGXHXHXHXvX0X$ | +XDX>.=.) [ X.#.",
"] 0 r Z.{ %.-.-.R [.-XK K K ,XkXlXDXkXjX2X2X7XK K K K I.=XeXeXqX6X4XjXlXlXHXHXHXHXGXHXHXHXGXGXGXGXjXfX,XP ]...0.9 r -.{ 0 5 z.@.",
"Q ^ 0 3 ) =.&.-.0.-.I.A F ,XSXHXHXHXHXVXfXfXlXfXJ.B J S R.-X&X#X=X7X6X9X8XxXxXxXxXcXxXcXxXzXzXpXgXL.I.M V >.-.,.-.4 >.A.[ ` ^ >.",
"o.{ T [ =.#.=.-.%.&.h #X#XgXHXHXHXHXHXHXHXHXHXFXHXHXmX}.G h k G I.&X=X=X-X-X-X-X-X-X-X=X-X=XW.L V I I #.[ &.i.9.{ ;.=.7 [ Q ) %.",
"] R W ) ` :.{ %.-.{ @ iXiXyXHXHXHXHXHXHXHXHXHXHXHXGXHXDX0X$ $ l * $ % = l * = j * % f * ; j g y.0.( x.9.~ %.u.&.&.%.{ 7 X.` T ) ",
"O.T o.| [ [ m.%.;.0.#X9XqXyXHXHXHXHXHXHXHXHXHXDXHXHXHXDXFXDXrX4Xz C D H D D D H H D D D A 9.s.{ { x.j.) q.0.,.{ >.| } B.) | 6.8 ",
"s.5 ) k.5 { ` ) | ~ 9X6X8XyXHXHXHXHXHXHXDXHXHXDXHXHXHXHXGXHXCXCXmX<XD D D U 2XU U U 2Xq w.f.-.o.1 &.u.R 7.=.0.) 9 m.h.| { | i.] ",
"| ) #.` ] | T | T %.9XeXqXrXfXFXHXHXHXHXHXHXvX+XuXxXHXHXDXHXHXHXHXHXDXZXtXS o Z H H @ 0.! k.8.T q.0.-.( m.i.) *.&.*.(.-.@.( 1.C.",
"4.) [ [ 1.:.v.&.d.p.5XeX8XwXrXHXHXHXHXHXHXZXvX^.5XcXHXGXHXHXHXHXHXHXHXFX3X+ - H H G k y.t.*.h.7.;., v.&.m.-.%.R ^ %.o.Q 5 X.` q ",
"' k.| [ ` o.) &.| D.eXeX9X8XyXHXHXHXHXHXFXZXwXI.E.9XxXSXHXHXHXHXHXHXBXCXFXFXfX= % * # w ;.;.w.2.6.-.*.>.6.4 p.=.e r @.<.C.` [ ' ",
"7 ~ ( | 6.7 < =.R ) ~.8X9X6XrXCXHXHXHXDXCXBX9X. x E.-XjXDXHXHXHXHXHXxX3XDXGXBXg +Xs 7.s.0.&.&.7.9.T 7 -.! <.>.Z.a.-.} 6.` -.` ).",
"^ [ +.X.| ` r ` q =./.uX8X7XqXpXvXHXHXNXtX.X= Y.T.A K.-XCXDXHXHXHXHXHXVXpXFXNXX @Xs i N.&.~ ~ B.} &./ 9.p.T | 8 ` ] &.r / ] i.=.",
"^ T ( ( ) / 5 1.!   U.uXuX7X2XwX8XFXHXuX/.o !.@XT.S I.=XfXDXHXHXHXHXGXHX. VX@ .XO ) v.8.y.p.~ r.$.&.u.*.5 | i ] e k.o.) @.' [ ] ",
",.$.Y @.h.0 ) I + Y.W.W.@XqX8X8X9XpXtX!.= @X!.!.^.~.x K wXgXDXHXFXHXHXHXg dXX @X@ 7.{ 7.j.~ &.>.q.| >.%.X.e.X.] Q ) ] @.] `.( ^ ",
"8 [ ] k.! [ o.L.* !.W.^.W.T.I.6XX j - Q.!.W.^.W.T.T.E.J ^.7XwXuXjXHXHXVX3Xo XXg t.;.;.i.` %.0.&.8 } %.k.^ e ! ` o.1.l.Y ^ e j.T ",
"R X.^ X.@...B L..X^.^.T./.E.f M r ` t g j j O O E.T.#X.X= R.6X4X8XlXHXHXCX% @Xs V.w.$.7 t @.) { -.{ B.=.M.h.Q [ ] Y R q [ O.( ' ",
"! ..' ( 6.x.M K.#XQ.~./.Q.*Xl + -.g.{ k k g h 6 @X/.!.R.z E.-XiX6XrXGXGXDX* Q.@ 7 -.r.-.&.` :.V.{ -.-.4.( R r [ ` 4.` ] ) q M.! ",
":.t ' H.5.N % K T.^.Q.~.U.&X# (.0 | R #.%.k.9.-.b & l f O j W.@X1XuXHXHXHXHX. s { p.} %.&.h.M.[ ~ >.o.&.[ 8 m.) i.d.6.! $.( x.' ",
"t R 5.~ ' M R.Q.T.Q.Q.#X$Xb q (.^ =.&.{ M.m.| ,.u.q L K @XE.X S R.eXyXDXFXHXcX. % -.&.r e @.) ~ | @.{ -.N.] R C.` | ..x.( X.R R ",
"! 3.^ ^ [ N U.Q.E.Q.!.6 s ,.{ r -.[ { { ) -.: l.-.r V K !.!.W.R.X W.eXeXZXZX8XpXyXs { h.| 7 Z.` a.} ` } ) ' T | ` ` ;.^ _ $.X.C.",
"i ( ] r 3.N *X*X&X9X8XN n ! &.) %.:.%., ` ) { %.{ { %.[.R./.W.K.h   I.pXpX7XfXDXzXSX; { <.=.k.0.( ` X.[ } / 7 5 V.] Y ) R R O.X.",
"4 ^ @.O.X.( ].$X#XU.I ] 4 =.] 7 =.;.W ) g.9 i.s.T >.Q } I P.K.K.W.K.z x -X%X<XhXU.3Xf.` $.Y ( ( 3.( ` _.[ ! ] t Y [ +.8 Z...+.R ",
"$.Y ! ^ p._ @. XI L ] =.` T ^ } Z.-.[ ` ! @.| } t | t @.| ,.&.o.&.` { ! } -.T 9 =.| { { ` > ` ] ` ` ] O.( ! ! X.=.X...O.H.E ( ^ ",
"^ ( (.5 R a a a b a c ,.8 [ X.) T @.r [ -.0.! { 7 ` ` d d d d c v c c c b d v ;.) [ | %.) i ^ ] ( Y ( t o.! Y 3.^ ,.! ..~ 3. .^ ",
"<.^ 5 ' ! X.( ! Y :.X.] ` ] +.^ ] { ` [ v.` [ } @.:.-.=.` =.>.| @.| / =.` [ 9 ` [ ( O.^ a.` o.) k.' ! X.[ +.@...7 7 H.5. .' ~ q ",
"' ] [ ^ T +.>.E  .E [  .O.^ k.=...( q ` ` ` R [ 5 [ | ) [ $.] t ' %...` 7 ~ | T <  .1.o.m.| [ 1.] k.^ r ( ~ 1 _.4 Q 8 q O.T q ' "
};
